resources/haticons/SVG/paint-format.svg

<!-- Generated by IcoMoon.io -->
<svg version="1.1" xmlns="http://www.w3.org/2000/svg" width="24" height="24" viewBox="0 0 24 24">
<title>paint-format</title>
<path d="M24 13.5v-9h-4.5v-1.5c0-0.825-0.675-1.5-1.5-1.5h-16.5c-0.825 0-1.5 0.675-1.5 1.5v4.5c0 0.825 0.675 1.5 1.5 1.5h16.5c0.825 0 1.5-0.675 1.5-1.5v-1.5h3v6h-13.5v3h-0.75c-0.414 0-0.75 0.336-0.75 0.75v7.5c0 0.414 0.336 0.75 0.75 0.75h3c0.414 0 0.75-0.336 0.75-0.75v-7.5c0-0.414-0.336-0.75-0.75-0.75h-0.75v-1.5h13.5zM18 4.5h-16.5v-1.5h16.5v1.5z"></path>
</svg>

<svg xmlns="http://www.w3.org/2000/svg" width="24" height="24"><path d="M24 13.5v-9h-4.5V3c0-.825-.675-1.5-1.5-1.5H1.5C.675 1.5 0 2.175 0 3v4.5C0 8.325.675 9 1.5 9H18c.825 0 1.5-.675 1.5-1.5V6h3v6H9v3h-.75a.75.75 0 0 0-.75.75v7.5c0 .414.336.75.75.75h3a.75.75 0 0 0 .75-.75v-7.5a.75.75 0 0 0-.75-.75h-.75v-1.5H24zm-6-9H1.5V3H18v1.5z"/></svg>
